X: 15
T: Te Deum laudamus / Patrem immensae majestatis / Te ergo quaesumus
N: Derived from Mou2135-Te_Deum_laudamus.krn
C: Mouton
%%abc-version 2.0
%%abcx-abcm2ps-target-version 5.9.1 (29 Sep 2008)
%%abc-creator hum2abc beta
%%abcx-conversion-date 2019/02/17 07:22:04
%%abc-edited-by Jesse Rodin
%%abc-edited-by Joel Chapman 2012/1/23
%%abcx-initial-encoding-date 2012/01/23/
%%humdrum-veritas 727304174
%%humdrum-veritas-data 717722498
%%linebreak <none>
%%barnumbers 0
L: 1/4
M: 2/1
Q: 1/2=120
%%staves [1 2 3 4]
V: 1 clef=treble
V: 2 clef=treble-8
V: 3 clef=treble-8
V: 4 clef=bass
K: C
[V:1] E8 | 
[V:2] z8 | 
[V:3] E3FG2A2 | 
[V:4] z4E,4- | 
[V:1] G4A4- | 
[V:2] e8 | 
[V:3] B4c4- | 
[V:4] E,4A,,4 | 
[V:1] A4G4 | 
[V:2] e4e4 | 
[V:3] c2BAB2c2- | 
[V:4] E,8 | 
[V:1] A3Bc2B2- | 
[V:2] c4f2d2 | 
[V:3] cBAGA2B2 | 
[V:4] F,6G,2 | 
[V:1] BAA4^G2 | 
[V:2] f4e4- | 
[V:3] c4B4 | 
[V:4] A,4E,4 | 
[V:1] A4c4 | 
[V:2] e4e4 | 
[V:3] A4A4 | 
[V:4] z4A,,4 | 
[V:1] c6c2 | 
[V:2] e6e2 | 
[V:3] A6A2 | 
[V:4] A,,6A,,2 | 
[V:1] B3AB2A2- | 
[V:2] e4e2c2 | 
[V:3] G6A2 | 
[V:4] E,6F,2 | 
[V:1] AGG4^F2 | 
[V:2] e4d4- | 
[V:3] B2c2A4 | 
[V:4] G,2C,2D,4 | 
[V:1] G8 | 
[V:2] d4z4 | 
[V:3] G3AB2c2- | 
[V:4] G,,4z4 | 
[V:1] c4A2B2 | 
[V:2] z8 | 
[V:3] cdecd4 | 
[V:4] z8 | 
[V:1] c4B4 | 
[V:2] f4d2e2 | 
[V:3] z8 | 
[V:4] z8 | 
[V:1] A4z2G2 | 
[V:2] f4e4 | 
[V:3] z8 | 
[V:4] z8 | 
[V:1] A2B4A2 | 
[V:2] d4d4 | 
[V:3] z8 | 
[V:4] z8 | 
[V:1] d3cB2A2- | 
[V:2] d2d4c2 | 
[V:3] z2G4A2 | 
[V:4] z8 | 
[V:1] AGG4^F2 | 
[V:2] d2G2c4 | 
[V:3] B4A4 | 
[V:4] z8 | 
[V:1] G4z4 | 
[V:2] B4z4 | 
[V:3] d3cB2A2- | 
[V:4] G,,6A,,2 | 
[V:1] z8 | 
[V:2] z2c4c2 | 
[V:3] AGG4^F2 | 
[V:4] B,,2C,2A,,4 | 
[V:1] z2G4G2 | 
[V:2] B3cd2e2- | 
[V:3] G4z4 | 
[V:4] G,,4G,4 | 
[V:1] E2F2G4- | 
[V:2] edc2B2e2- | 
[V:3] z4z2c2- | 
[V:4] A,4G,2C,2 | 
[V:1] G4F4 | 
[V:2] e2c2d4 | 
[V:3] c2c2A2B2 | 
[V:4] E,4D,3D, | 
[V:1] E3FG2A2- | 
[V:2] G4z4 | 
[V:3] c8 | 
[V:4] C,8 | 
[V:1] A2G2A4 | 
[V:2] d4d2f2- | 
[V:3] B4A4 | 
[V:4] z4D,4 | 
[V:1] z8 | 
[V:2] f2edc3d | 
[V:3] z2A4A2 | 
[V:4] D,2F,4E,D, | 
[V:1] z2G2G2G2 | 
[V:2] e8 | 
[V:3] c4B4 | 
[V:4] C,3D,E,4 | 
[V:1] E4z2A2 | 
[V:2] c4d2c2 | 
[V:3] z2A2A2A2 | 
[V:4] A,4F,4- | 
[V:1] A2A2B4 | 
[V:2] f4e2d2- | 
[V:3] c4B4- | 
[V:4] F,2F,2G,4 | 
[V:1] G3AB2c2 | 
[V:2] d2c2B3A/G/ | 
[V:3] B2c2d2e2 | 
[V:4] E,4z2C,2 | 
[V:1] B2A3GG2- | 
[V:2] F2A2B2c2 | 
[V:3] d2c3BG2 | 
[V:4] D,2F,2E,4 | 
[V:1] G2^F2G4- | 
[V:2] d4B4 | 
[V:3] A4G4 | 
[V:4] D,4z4 | 
[V:1] G8- | 
[V:2] e4e2e2 | 
[V:3] c4c2c2- | 
[V:4] C,4C,2C,2 | 
[V:1] G4z4 | 
[V:2] e3dc2BA | 
[V:3] c2c2A4- | 
[V:4] C,4F,4 | 
[V:1] z4E4 | 
[V:2] c2B3AA2- | 
[V:3] A2B2c4 | 
[V:4] F,2G,2A,4 | 
[V:1] E2E4E2 | 
[V:2] A2^G2A4 | 
[V:3] B4A4 | 
[V:4] E,4A,,4 | 
[V:1] E4E4- | 
[V:2] c4c2c2- | 
[V:3] A4A2A2- | 
[V:4] A,,2A,,4A,,2 | 
[V:1] E4E4 | 
[V:2] c2c2B4 | 
[V:3] A2A2G4 | 
[V:4] A,,4E,4 | 
[V:1] F4G4- | 
[V:2] z2d3cBA | 
[V:3] A4B4 | 
[V:4] D,4G,3F, | 
[V:1] G2F2E4 | 
[V:2] G2A3GG2- | 
[V:3] c2d2B2c2 | 
[V:4] E,2D,2E,2C,2 | 
[V:1] D8 | 
[V:2] G2^F2G3A | 
[V:3] A4G4- | 
[V:4] D,4G,,4 | 
[V:1] z8 | 
[V:2] Bcd4e2 | 
[V:3] G4z2G2 | 
[V:4] G,6F,E, | 
[V:1] z4G3A | 
[V:2] f4e4 | 
[V:3] A2B2c4 | 
[V:4] D,4C,4 | 
[V:1] B2c3BA2- | 
[V:2] z8 | 
[V:3] B2A2c4 | 
[V:4] z4z2C,2 | 
[V:1] A2^G2A4 | 
[V:2] z4c3d | 
[V:3] B4A4 | 
[V:4] D,2E,2F,4 | 
[V:1] z8 | 
[V:2] e2f3ed2- | 
[V:3] z8 | 
[V:4] E,2D,2F,2G,2 | 
[V:1] z8 | 
[V:2] d2^c2d4 | 
[V:3] z2G2A2B2 | 
[V:4] E,4D,4 | 
[V:1] G3AB2c2- | 
[V:2] z8 | 
[V:3] c4B2A2 | 
[V:4] z8 | 
[V:1] cBA4^G2 | 
[V:2] z8 | 
[V:3] c4B4 | 
[V:4] z8 | 
[V:1] A4c4- | 
[V:2] z4f4- | 
[V:3] A4A4- | 
[V:4] z4F,4- | 
[V:1] c2c2c4 | 
[V:2] f2f2f4 | 
[V:3] A2A2A4 | 
[V:4] F,2F,2F,4 | 
[V:1] c4d3c | 
[V:2] e4d4 | 
[V:3] G4B4- | 
[V:4] C,4G,4- | 
[V:1] B2A3GG2- | 
[V:2] d2f3edc | 
[V:3] B2c2d2cB | 
[V:4] G,2F,2D,2G,2 | 
[V:1] G2^F2G4 | 
[V:2] d6c2 | 
[V:3] A4G4- | 
[V:4] D,4G,,4- | 
[V:1] z4z2c2- | 
[V:2] B4A4 | 
[V:3] G4c4 | 
[V:4] G,,4z4 | 
[V:1] c2B2A2G2- | 
[V:2] z8 | 
[V:3] A2B2c4 | 
[V:4] z8 | 
[V:1] G2A2A2G2 | 
[V:2] z2f4e2 | 
[V:3] B2A2B4 | 
[V:4] z2F,2D,2E,2 | 
[V:1] A4z4 | 
[V:2] d2c4d2 | 
[V:3] A4z4 | 
[V:4] F,4E,2D,2 | 
[V:1] z8 | 
[V:2] d2^c2d4 | 
[V:3] z8 | 
[V:4] E,4D,4 | 
[V:1] z8 | 
[V:2] z2B2c2d2- | 
[V:3] z8 | 
[V:4] G,4E,2F,2 | 
[V:1] z8 | 
[V:2] d2B2e4- | 
[V:3] z8 | 
[V:4] G,4C,4 | 
[V:1] z8 | 
[V:2] e2d2e4 | 
[V:3] z4z2c2- | 
[V:4] G,3F,E,2D,C, | 
[V:1] z4z2A2 | 
[V:2] f4e4- | 
[V:3] c2A2c4 | 
[V:4] D,4C,2A,,2 | 
[V:1] A2G2c4- | 
[V:2] e8- | 
[V:3] B4A2A2 | 
[V:4] E,4A,,4 | 
[V:1] c2B2A4 | 
[V:2] e4z4 | 
[V:3] A2G2c4- | 
[V:4] z4F,4 | 
[V:1] G4z4 | 
[V:2] z4z2d2 | 
[V:3] c2B2A4 | 
[V:4] E,2G,4F,2 | 
[V:1] z8 | 
[V:2] d2c2f4- | 
[V:3] G4z4 | 
[V:4] E,4D,2D,2 | 
[V:1] z8 | 
[V:2] f2e2d2cB | 
[V:3] z8 | 
[V:4] D,2C,2F,4- | 
[V:1] z8 | 
[V:2] A2d3cc2- | 
[V:3] z8 | 
[V:4] F,2E,D,E,2F,2 | 
[V:1] z4G4 | 
[V:2] c2B2c4 | 
[V:3] z8 | 
[V:4] D,4C,4- | 
[V:1] G2G2G4 | 
[V:2] e4e2e2 | 
[V:3] c4c2c2 | 
[V:4] C,8- | 
[V:1] E3FG2A2- | 
[V:2] g3fedf2 | 
[V:3] c6A2 | 
[V:4] C,4z4 | 
[V:1] A2G3FD2 | 
[V:2] f2e3dd2- | 
[V:3] c4B4 | 
[V:4] z8 | 
[V:1] E4D4 | 
[V:2] d2^c2d4 | 
[V:3] A4z4 | 
[V:4] z4D,4- | 
[V:1] z8 | 
[V:2] z8 | 
[V:3] A4G2A2 | 
[V:4] D,2C,2B,,2A,,2 | 
[V:1] z8 | 
[V:2] z8 | 
[V:3] B2A4G2- | 
[V:4] G,,2C,4B,,2 | 
[V:1] z8 | 
[V:2] z8 | 
[V:3] G2^F2G4 | 
[V:4] A,,4G,,4 | 
[V:1] c6c2 | 
[V:2] e6e2 | 
[V:3] G6G2 | 
[V:4] C,6C,2 | 
[V:1] c4A4 | 
[V:2] e4d4 | 
[V:3] G4F4 | 
[V:4] C,4D,4 | 
[V:1] c4B2A2- | 
[V:2] e3fg2f2 | 
[V:3] G6A2 | 
[V:4] C,3D,E,2F,2 | 
[V:1] A2G2A4 | 
[V:2] d3ef4 | 
[V:3] B4c4 | 
[V:4] G,4F,4 | 
[V:1] A4A2A2- | 
[V:2] f4f2f2- | 
[V:3] c4c2c2- | 
[V:4] F,4F,2F,2- | 
[V:1] A2A2A4 | 
[V:2] f2f2e4 | 
[V:3] c2c2c4 | 
[V:4] F,2F,2A,4 | 
[V:1] G3ABGA2- | 
[V:2] e4d2f2- | 
[V:3] B6c2 | 
[V:4] E,3F,G,2F,2- | 
[V:1] A2G2F2G2- | 
[V:2] fed4c2 | 
[V:3] d2B2A2G2 | 
[V:4] F,2G,2D,2E,2 | 
[V:1] G2^F2G4 ||  
[V:2] d8 ||  
[V:3] A4G4 ||  
[V:4] D,4G,,4 ||  
[V:1] [M:2/1]G6A2 | 
[V:2] [M:2/1]z4e4- | 
[V:3] [M:2/1]z8 | 
[V:4] [M:2/1]z8 | 
[V:1] B2c4BA | 
[V:2] e2A2c2d2 | 
[V:3] z8 | 
[V:4] z8 | 
[V:1] c2B3AA2- | 
[V:2] e4d2c2 | 
[V:3] z8 | 
[V:4] z8 | 
[V:1] A2^G2A4- | 
[V:2] B4A4 | 
[V:3] z8 | 
[V:4] z8 | 
[V:1] A4z2A2 | 
[V:2] z2d2d4 | 
[V:3] z8 | 
[V:4] z8 | 
[V:1] A4G3A | 
[V:2] c2d2e4- | 
[V:3] z8 | 
[V:4] z8 | 
[V:1] B2c2B2G2 | 
[V:2] e2dcd2e2 | 
[V:3] z8 | 
[V:4] z8 | 
[V:1] A4G4- | 
[V:2] f4e4- | 
[V:3] z8 | 
[V:4] z4C,4 | 
[V:1] G4z4 | 
[V:2] e4z4 | 
[V:3] c4c2c2 | 
[V:4] C,2C,2C,3D, | 
[V:1] z8 | 
[V:2] z8 | 
[V:3] c6A2 | 
[V:4] E,2F,2C,2F,2- | 
[V:1] z8 | 
[V:2] z8 | 
[V:3] c4B4 | 
[V:4] F,G,A,4G,2 | 
[V:1] z8 | 
[V:2] z8 | 
[V:3] A4z2A2 | 
[V:4] F,2E,D,C,2D,2- | 
[V:1] z8 | 
[V:2] z8 | 
[V:3] A2A2B2cB | 
[V:4] D,2F,2E,2C,2 | 
[V:1] z4z2G2 | 
[V:2] z8 | 
[V:3] AGA3GG2- | 
[V:4] D,4C,2B,,2 | 
[V:1] A4B4 | 
[V:2] z4z2d2- | 
[V:3] G2^F2G4 | 
[V:4] A,,4G,,4 | 
[V:1] A2A4G2 | 
[V:2] d2c2d2e2 | 
[V:3] z8 | 
[V:4] z8 | 
[V:1] A2B2G4 | 
[V:2] c2g3fe2- | 
[V:3] z8 | 
[V:4] z8 | 
[V:1] F4E4- | 
[V:2] e2d2e4 | 
[V:3] z4A4- | 
[V:4] z8 | 
[V:1] E4z2E2- | 
[V:2] c8 | 
[V:3] A4A4 | 
[V:4] z2A,,4A,,2 | 
[V:1] E2E2G4- | 
[V:2] c4d4- | 
[V:3] G2A2B4- | 
[V:4] C,2C,2G,,3A,, | 
[V:1] G2F2E4 | 
[V:2] d4B2c2 | 
[V:3] B2A2G2FE | 
[V:4] B,,C,D,2E,2C,2 | 
[V:1] D4E4- | 
[V:2] A2B2c3d | 
[V:3] F4E4 | 
[V:4] D,4A,,4 | 
[V:1] E8- | 
[V:2] B4A4 | 
[V:3] G4A2c2 | 
[V:4] z4z2A,2 | 
[V:1] E8- | 
[V:2] z8 | 
[V:3] c6BA | 
[V:4] A,4A,2A,2 | 
[V:1] E4z4 | 
[V:2] z8 | 
[V:3] B2c2d3c | 
[V:4] G,2A,2B,4 | 
[V:1] z2A2A2A2 | 
[V:2] z8 | 
[V:3] BAc3BA2 | 
[V:4] G,2A,2F,4 | 
[V:1] B4c4 | 
[V:2] z2G2A2c2- | 
[V:3] G4z4 | 
[V:4] E,4z4 | 
[V:1] A2G2A2c2- | 
[V:2] c2B2c2d2 | 
[V:3] z4z2A2- | 
[V:4] z8 | 
[V:1] c2B4A2- | 
[V:2] e8 | 
[V:3] A2G2A4 | 
[V:4] z8 | 
[V:1] A2^G2A4 | 
[V:2] z4c4 | 
[V:3] B4A4 | 
[V:4] z8 | 
[V:1] z8 | 
[V:2] d2e2c2B2- | 
[V:3] G4A2B2 | 
[V:4] z8 | 
[V:1] z8 | 
[V:2] B2e4d2 | 
[V:3] G4F4 | 
[V:4] z8 | 
[V:1] z4G4 | 
[V:2] e4e4 | 
[V:3] E4c4 | 
[V:4] z4C,4 | 
[V:1] G2G4G2 | 
[V:2] e2e4e2 | 
[V:3] c2c4c2 | 
[V:4] C,2C,4C,2 | 
[V:1] G4G4- | 
[V:2] e4d4 | 
[V:3] c4B4 | 
[V:4] C,4G,3F, | 
[V:1] G2F2G4 | 
[V:2] e2f3ee2- | 
[V:3] B2d3cB2- | 
[V:4] E,2D,2E,4 | 
[V:1] A4G4 | 
[V:2] e2d2e4 | 
[V:3] B2A2B4 | 
[V:4] F,4E,4 | 
[V:1] z2G2G2G2 | 
[V:2] z2e2e2e2 | 
[V:3] z2c2c2c2 | 
[V:4] z2C,2C,2C,2 | 
[V:1] G4G4 | 
[V:2] e4d2e2 | 
[V:3] c4B4 | 
[V:4] C,4G,4 | 
[V:1] A6B2 | 
[V:2] f6e2 | 
[V:3] c2d4cB | 
[V:4] F,2D,2F,2G,2 | 
[V:1] A4F4 | 
[V:2] e4z4 | 
[V:3] c4d4 | 
[V:4] A,4D,4 | 
[V:1] G6G2 | 
[V:2] d6e2 | 
[V:3] B8 | 
[V:4] G,8 | 
[V:1] A4G4 | 
[V:2] f3ed2cB | 
[V:3] c4B4 | 
[V:4] F,4G,4 | 
[V:1] E4z2E2 | 
[V:2] c4B4- | 
[V:3] A4G4- | 
[V:4] A,4E,4- | 
[V:1] G4A4 | 
[V:2] B4z2A2 | 
[V:3] G4z4 | 
[V:4] E,4z4 | 
[V:1] G2A4B2 | 
[V:2] c4d4 | 
[V:3] z8 | 
[V:4] z8 | 
[V:1] c2A2B4 | 
[V:2] c2d4e2 | 
[V:3] z8 | 
[V:4] z8 | 
[V:1] A4z2G2 | 
[V:2] f2d2e4 | 
[V:3] z8 | 
[V:4] z8 | 
[V:1] A2B2G2A2- | 
[V:2] d4z2c2 | 
[V:3] z8 | 
[V:4] z8 | 
[V:1] A2G4FE | 
[V:2] d2e2c2e2- | 
[V:3] z8 | 
[V:4] z8 | 
[V:1] F4E4 | 
[V:2] edd3^c^cB | 
[V:3] z4A4- | 
[V:4] z8 | 
[V:1] z4F4 | 
[V:2] d4z2d2 | 
[V:3] A4A4- | 
[V:4] D,8 | 
[V:1] F4G4- | 
[V:2] d4e4- | 
[V:3] A4B4- | 
[V:4] F,4E,4- | 
[V:1] G2E2E4- | 
[V:2] e2c2c4- | 
[V:3] B2A2A4 | 
[V:4] E,2A,,2A,,4 | 
[V:1] E4E4 | 
[V:2] c4c4 | 
[V:3] A4G4 | 
[V:4] C,6B,,2 | 
[V:1] F4G4- | 
[V:2] c4d4 | 
[V:3] A4B4 | 
[V:4] A,,4G,,4 | 
[V:1] G2F2E4- | 
[V:2] c6B2 | 
[V:3] G2A3GG2- | 
[V:4] C,8 | 
[V:1] E2DCD4 | 
[V:2] A8- | 
[V:3] G2FEF3G | 
[V:4] D,8 | 
[V:1] E8- | 
[V:2] A8- | 
[V:3] A6E2 | 
[V:4] A,,8- | 
[V:1] E8 ||  
[V:2] A8 ||  
[V:3] E8 ||  
[V:4] A,,8 ||  
[V:1] [M:2/1]A8 | 
[V:2] [M:2/1]e8 | 
[V:3] [M:2/1]c8 | 
[V:4] [M:2/1]A,8 | 
[V:1] A4A4 | 
[V:2] e4f4 | 
[V:3] c4d4 | 
[V:4] A,4D,4 | 
[V:1] A6A2 | 
[V:2] f6f2 | 
[V:3] c6c2 | 
[V:4] F,6F,2 | 
[V:1] A4A4 | 
[V:2] f4e4 | 
[V:3] c4c4 | 
[V:4] F,4A,4 | 
[V:1] A2A2A4 | 
[V:2] e2e2e4 | 
[V:3] c2c2c4 | 
[V:4] A,2A,2A,4 | 
[V:1] G3AB2c2 | 
[V:2] e4z2g2- | 
[V:3] B4e4 | 
[V:4] E,6C,2 | 
[V:1] B2A4^G2 | 
[V:2] g2f2e4 | 
[V:3] d3cB4 | 
[V:4] D,4E,4 | 
[V:1] A4A4 | 
[V:2] c4f4 | 
[V:3] A4d4 | 
[V:4] z4D,4 | 
[V:1] A2A2G4 | 
[V:2] f2f2e4 | 
[V:3] d2d2B4 | 
[V:4] D,2D,2E,4 | 
[V:1] A4B4- | 
[V:2] c4g4- | 
[V:3] A4d4- | 
[V:4] F,4G,4- | 
[V:1] B2A2A4- | 
[V:2] g2e2e4 | 
[V:3] d2c2c4 | 
[V:4] G,2A,2A,4 | 
[V:1] A4z2G2 | 
[V:2] f3edcd2- | 
[V:3] d3cBAB2 | 
[V:4] D,4G,4 | 
[V:1] A2B2G2FE | 
[V:2] d2cBd2e2 | 
[V:3] A2G2B2c2 | 
[V:4] F,2G,4C,2 | 
[V:1] F4E4- | 
[V:2] d4B4- | 
[V:3] A4G4 | 
[V:4] D,4E,4- | 
[V:1] E8- | 
[V:2] B8- | 
[V:3] z8 | 
[V:4] E,8- | 
[V:1] E4z4 | 
[V:2] B4z4 | 
[V:3] G4A3B | 
[V:4] E,4F,4 | 
[V:1] z8 | 
[V:2] z8 | 
[V:3] c2d3cc2- | 
[V:4] F,2D,2E,2F,2 | 
[V:1] z4z2C2 | 
[V:2] z4z2c2 | 
[V:3] c2B2c4 | 
[V:4] D,4C,4 | 
[V:1] E2F2G4 | 
[V:2] c2d2e4 | 
[V:3] z8 | 
[V:4] z8 | 
[V:1] G4z4 | 
[V:2] e4z2d2 | 
[V:3] z2G2G2A2 | 
[V:4] z2C,2E,2F,2 | 
[V:1] z2G2G3G | 
[V:2] d3dd2e2- | 
[V:3] B4B4 | 
[V:4] G,4G,4 | 
[V:1] G2A4F2 | 
[V:2] e2c2d4 | 
[V:3] z8 | 
[V:4] z8 | 
[V:1] G4E4 | 
[V:2] B8 | 
[V:3] G4A2c2- | 
[V:4] z8 | 
[V:1] z8 | 
[V:2] z8 | 
[V:3] c2c2B2A2 | 
[V:4] C,4D,2F,2- | 
[V:1] z8 | 
[V:2] z8 | 
[V:3] c3BG2B2 | 
[V:4] F,2F,2E,2D,2 | 
[V:1] z8 | 
[V:2] z4z2G2 | 
[V:3] A4G4 | 
[V:4] F,3E,C,2E,2 | 
[V:1] z4z2E2 | 
[V:2] A2B2c4 | 
[V:3] z8 | 
[V:4] D,4C,4 | 
[V:1] F2G2A4 | 
[V:2] z2B2c2d2 | 
[V:3] z8 | 
[V:4] z8 | 
[V:1] G2E2F3G | 
[V:2] e4d2B2 | 
[V:3] z8 | 
[V:4] z8 | 
[V:1] E8 | 
[V:2] c4A2c2- | 
[V:3] z2c2c2A2 | 
[V:4] A,,4A,,2A,,2 | 
[V:1] z8 | 
[V:2] cBA2G4 | 
[V:3] c4B3A | 
[V:4] A,,4E,3F, | 
[V:1] z4z2G2 | 
[V:2] z8 | 
[V:3] B2c4B2 | 
[V:4] G,2A,3G,G,2- | 
[V:1] A2c4B2 | 
[V:2] z4d4 | 
[V:3] A4G4 | 
[V:4] G,2F,2G,4 | 
[V:1] c3BAGA2- | 
[V:2] e3dc2A2 | 
[V:3] z2G2A2c2- | 
[V:4] C,4F,4 | 
[V:1] A2GFG4 | 
[V:2] c2d2e4 | 
[V:3] c2A2B3c | 
[V:4] F,2F,2E,4 | 
[V:1] F4F4 | 
[V:2] A4d4 | 
[V:3] d4A4 | 
[V:4] D,4D,4- | 
[V:1] F2G2A2G2- | 
[V:2] d2e2c4 | 
[V:3] A2c4G2 | 
[V:4] D,2C,2F,2E,2 | 
[V:1] G2^F2G4 | 
[V:2] d4B4 | 
[V:3] A4G4- | 
[V:4] D,4G,,4- | 
[V:1] D3EFGA2- | 
[V:2] z4z2d2 | 
[V:3] G4z4 | 
[V:4] G,,4z4 | 
[V:1] A2GFE3F | 
[V:2] d2d2c3d | 
[V:3] z2D2A4 | 
[V:4] z8 | 
[V:1] G2A2D4 | 
[V:2] e2f3ed2- | 
[V:3] G2F2_B4 | 
[V:4] z8 | 
[V:1] E4D2D2 | 
[V:2] d2^c2d4 | 
[V:3] A4z4 | 
[V:4] z8 | 
[V:1] F3GA2B2 | 
[V:2] z8 | 
[V:3] z2d2c2d2 | 
[V:4] z8 | 
[V:1] c2B3AA2- | 
[V:2] z8 | 
[V:3] e3dc2d2 | 
[V:4] z8 | 
[V:1] A2^G2A4 | 
[V:2] d4c2f2- | 
[V:3] B4A4- | 
[V:4] z8 | 
[V:1] z4A4 | 
[V:2] fedcd2c2- | 
[V:3] A4z4 | 
[V:4] D,4D,2F,2- | 
[V:1] A4A4- | 
[V:2] c2f4e2 | 
[V:3] A4A2c2- | 
[V:4] F,E,D,C,D,2C,2 | 
[V:1] A2A2A4- | 
[V:2] f8 | 
[V:3] cBAGA2F2 | 
[V:4] F,6D,2 | 
[V:1] A2A2A4 | 
[V:2] f4e4- | 
[V:3] c6A2 | 
[V:4] F,3G,A,4 | 
[V:1] G4G2c2- | 
[V:2] e2d2c2BA | 
[V:3] c3de4 | 
[V:4] z4z2A,,2- | 
[V:1] cBA4^G2 | 
[V:2] c4B4 | 
[V:3] z2E2F2G2 | 
[V:4] A,,B,,C,2D,2E,2 | 
[V:1] A4z2c2- | 
[V:2] A4z2e2- | 
[V:3] E4z2A2- | 
[V:4] A,,4z2A,,2- | 
[V:1] c2c2B3A | 
[V:2] e2e2e2d2 | 
[V:3] A2A2G2A2 | 
[V:4] A,,2A,,2E,2F,2 | 
[V:1] G4z4 | 
[V:2] e4z4 | 
[V:3] B4G2A2- | 
[V:4] E,4E,2F,2- | 
[V:1] z4z2A2 | 
[V:2] z4z2A2 | 
[V:3] AGFEF4 | 
[V:4] F,E,D,C,D,4 | 
[V:1] A2G2A3B | 
[V:2] c2B2c2d2 | 
[V:3] E4z4 | 
[V:4] z8 | 
[V:1] c4A2B2- | 
[V:2] e4e4- | 
[V:3] z2A2c2B2 | 
[V:4] A,4A,2G,2 | 
[V:1] BAA4G2 | 
[V:2] e2A2B4 | 
[V:3] c2d2e4 | 
[V:4] A,2F,2E,4 | 
[V:1] A4z4 | 
[V:2] A4z4 | 
[V:3] d2c2B4 | 
[V:4] F,2A,4^G,2 | 
[V:1] z8 | 
[V:2] c4c2c2 | 
[V:3] c4z4 | 
[V:4] A,8 | 
[V:1] A4A2A2 | 
[V:2] d4c2d2- | 
[V:3] z8 | 
[V:4] z8 | 
[V:1] A4G2A2- | 
[V:2] def2e2d2- | 
[V:3] z8 | 
[V:4] z8 | 
[V:1] ABc2B2A2- | 
[V:2] d2c2d4 | 
[V:3] z8 | 
[V:4] z8 | 
[V:1] AGFEF4 | 
[V:2] A4z4 | 
[V:3] z4A4 | 
[V:4] D,4D,2D,2- | 
[V:1] E4z4 | 
[V:2] z8 | 
[V:3] A2A4G2 | 
[V:4] D,2C,2D,2E,2 | 
[V:1] z8 | 
[V:2] z8 | 
[V:3] A2B2c3B | 
[V:4] C,2B,,2A,,4 | 
[V:1] z8 | 
[V:2] z8 | 
[V:3] A4z2A2 | 
[V:4] D,2C,2D,3C, | 
[V:1] z8 | 
[V:2] z8 | 
[V:3] G2A4G2 | 
[V:4] B,,2A,,B,,C,D,E,2- | 
[V:1] z8 | 
[V:2] z8 | 
[V:3] F4E4 | 
[V:4] E,2D,2E,4 | 
[V:1] A4A2A2 | 
[V:2] f4f2f2 | 
[V:3] z2d2d2d2 | 
[V:4] z2D,2D,2D,2 | 
[V:1] A3AA2A2 | 
[V:2] e3ee2e2 | 
[V:3] c3cc2c2 | 
[V:4] A,3A,A,2A,2 | 
[V:1] A2A2G4 | 
[V:2] e2e2e4 | 
[V:3] c2c2B4 | 
[V:4] A,2A,2E,4 | 
[V:1] A3Bc2B2- | 
[V:2] e4e2e2- | 
[V:3] c4A2B2 | 
[V:4] A,4A,2G,2 | 
[V:1] BAA4G2 | 
[V:2] e2f4d2 | 
[V:3] c4d4 | 
[V:4] A,4_B,4 | 
[V:1] A4F4 | 
[V:2] e4z2d2 | 
[V:3] c4A4 | 
[V:4] A,4D,4 | 
[V:1] G6A2 | 
[V:2] d6d2 | 
[V:3] B6A2 | 
[V:4] G,6D,2 | 
[V:1] A4z2A2 | 
[V:2] d4f4 | 
[V:3] A4z2A2 | 
[V:4] D,8 | 
[V:1] B2c2d3c | 
[V:2] e2e2d4- | 
[V:3] G2A2B3A | 
[V:4] z8 | 
[V:1] BAB4A2- | 
[V:2] d2G2c2d2 | 
[V:3] G2FEF4 | 
[V:4] z8 | 
[V:1] A2^G2A4 | 
[V:2] B4A4 | 
[V:3] E4z4 | 
[V:4] z8 | 
[V:1] F8 | 
[V:2] d8 | 
[V:3] A8 | 
[V:4] D,8 | 
[V:1] F4F4- | 
[V:2] d4c4- | 
[V:3] A4A4- | 
[V:4] D,4F,4- | 
[V:1] F2F2F4 | 
[V:2] c2c2c4 | 
[V:3] A2A2A4 | 
[V:4] F,2F,2F,4 | 
[V:1] E6DC | 
[V:2] c4A4- | 
[V:3] G6FE | 
[V:4] C,4D,4- | 
[V:1] D4E4- | 
[V:2] A2B2c4- | 
[V:3] F4G4- | 
[V:4] D,4C,4- | 
[V:1] E8- | 
[V:2] c4G4- | 
[V:3] G4z4 | 
[V:4] C,4C,4- | 
[V:1] E4C4 | 
[V:2] G4A4 | 
[V:3] E8 | 
[V:4] C,2B,,2A,,4 | 
[V:1] D4F4- | 
[V:2] B4c4- | 
[V:3] G4A4- | 
[V:4] G,,4F,,4- | 
[V:1] F4D4- | 
[V:2] c4B4 | 
[V:3] A4G4- | 
[V:4] F,,4G,,4- | 
[V:1] D2E2F2G2 | 
[V:2] d6cB | 
[V:3] G2FED4 | 
[V:4] G,,4z4 | 
[V:1] A6GF | 
[V:2] A3Bc4- | 
[V:3] F6ED | 
[V:4] F,,6G,,2 | 
[V:1] E2F3EE2- | 
[V:2] c2BAG2A2- | 
[V:3] C2D2E4 | 
[V:4] A,,2F,,2C,4 | 
[V:1] E2D2E4- | 
[V:2] A2B2c2BA | 
[V:3] F4E4- | 
[V:4] D,4A,,4 | 
[V:1] E8- | 
[V:2] G2A2E4 | 
[V:3] E4G4- | 
[V:4] C,6D,2 | 
[V:1] E8- | 
[V:2] z2c4B2 | 
[V:3] G2A2B2G2 | 
[V:4] E,2C,2G,4 | 
[V:1] E8 |]  
[V:2] A4G4 |]  
[V:3] c4B4 |]  
[V:4] A,4E,4 |]  
